X: 26909
T: Miramichi Fire
R: reel
M: 4/4
K: Amajor
|:cd|eaga eaed|ceAe dcBA|d=gfa ged=c|B=GdG BdGB|
eaga eaed|ceAe dcBA|cacA B=gBG|AAB=G AB:|
|:cd|eAce Aced|ceAe AcBA|eAce ABcA|B=GdG BdGB|
eAce Aced|ceAe AcBA|cacA B=gBG|AAB=G AB:|

